src/assets/selectIconsSpells/guarigione_1.svg

<svg xmlns="http://www.w3.org/2000/svg" viewBox="0 0 512 512"><path d="M0 0h512v512H0z"/><path fill="#fff" d="M202.412 21.06c-2.189.065-4.715.577-7.795 1.643C149.244 38.411 80.172 79.747 18.965 98.262c10.858 6.727 22.689 12.663 34.941 17.37 13.696-6.286 27.073-12.537 38.414-18.808 13.887-7.678 24.612-15.672 29.078-22.199l13.204 9.035c-7.33 10.712-19.785 19.009-34.54 27.166-7.337 4.057-15.276 8.01-23.468 11.904 7.515 1.809 15.064 3.09 22.533 3.707 3.378.28 6.732.43 10.057.456 15.845-9.826 30.838-22.51 35.67-31.631l14.138 7.488c-3.464 6.54-8.679 12.826-14.933 18.695 15.63-5.498 29.79-15.436 41.54-31.103l7.235-9.647 6.076 10.416c4.704 8.064 11.043 14.811 18.235 20.618 5.332-.816 10.034-1.374 14.855-1.649V79.084c-9.7-7.317-16-18.93-16-31.941a39.612 39.612 0 0 1 3.068-15.305c-2.539-3.553-5.16-6.348-7.793-8.072-2.172-1.423-4.325-2.385-6.941-2.643a15.694 15.694 0 0 0-1.922-.063zm106.258 0c-.342.01-.677.03-1.004.063-2.616.258-4.769 1.22-6.941 2.643-2.634 1.724-5.254 4.52-7.793 8.072A39.612 39.612 0 0 1 296 47.143c0 13.011-6.3 24.624-16 31.941v30.996c5.003.289 10.454.932 14.855 1.649 7.192-5.807 13.531-12.554 18.235-20.618l6.076-10.416 7.234 9.647c11.75 15.667 25.911 25.605 41.541 31.103-6.254-5.869-11.47-12.155-14.933-18.695l14.138-7.488c4.832 9.122 19.825 21.805 35.67 31.63a134.06 134.06 0 0 0 10.057-.454c7.47-.619 15.018-1.9 22.533-3.708-8.192-3.894-16.131-7.847-23.469-11.904-14.754-8.157-27.208-16.454-34.539-27.166l13.204-9.035c4.466 6.527 15.19 14.521 29.078 22.2 11.34 6.27 24.718 12.52 38.414 18.808 12.252-4.708 24.083-10.644 34.941-17.371-61.207-18.515-130.279-59.85-175.652-75.559-3.52-1.219-6.317-1.711-8.713-1.642zM256 24c-13.35 0-24 10.65-24 24s10.65 24 24 24 24-10.65 24-24-10.65-24-24-24zm-8 62.332v24.64c2.793.606 5.759 1.61 8 2.89 2.681-1.483 5.28-2.266 8-2.89v-24.64c-2.587.53-5.263.81-8 .81s-5.413-.28-8-.81zm-12.547 39.654a76.025 76.025 0 0 0-4.674.2c-12.862.942-28.802 5.08-35.353 8.185-14.907 7.066-21.148 13.791-24.215 19.988-3.067 6.198-3.211 12.802-3.211 20.784 0 9.333 4.299 16.218 12.146 22.812 7.848 6.594 19.157 12.141 30.8 16.75 21.493 11.283 44.162 22.942 62.048 35.984 4.915 3.475 11.183 5.658 15.998 8.178 4.717-4.959 7.008-9.53 7.008-13.724 0-2.5-.667-5.262-1.893-8.182-12.214-23.082-35.176-34.215-59.312-47.52l-.057.063c-10.371-4.023-20.014-6.361-26.738-6.361l-3.578-15.157c15.833-7.916 27.435-14.553 34.338-20.877 6.756-6.188 9.266-11.253 9.209-19.312-4.007-1.756-8.557-1.851-12.516-1.81zm41.094 0c-4.174.141-9.299.064-12.516 1.81-.057 8.06 2.453 13.125 9.21 19.313 6.902 6.324 18.504 12.961 34.337 20.877L304 183.143c-7.963 0-20.012 3.269-32.525 8.744 10.05 6.432 19.599 13.926 27.498 23.611.695-.268 1.387-.518 2.082-.793 11.642-4.609 22.95-10.156 30.799-16.75C339.7 191.361 344 184.475 344 175.143c0-7.982-.144-14.586-3.21-20.784-3.068-6.197-9.309-12.922-24.216-19.988-6.55-3.105-22.491-7.243-35.353-8.185a75.995 75.995 0 0 0-4.674-.2zM256 151.77a49.262 49.262 0 0 1-6.434 7.138c-.508.466-1.035.926-1.566 1.383v17.15a160.265 160.265 0 0 1 8.008 3.92 163.653 163.653 0 0 1 7.992-3.92v-17.15a68.078 68.078 0 0 1-1.566-1.383A49.264 49.264 0 0 1 256 151.77zm-37.537 83.896c-1.594 3.4-2.463 6.61-2.463 9.477 0 4.833 3.03 10.165 9.322 16.015 6.292 5.85 15.368 11.666 24.686 17.06 9.318 5.395 18.832 10.38 26.472 15.339 3.82 2.48 7.189 4.92 9.995 7.81 2.806 2.89 5.525 6.609 5.525 11.776 0 4.25-2.151 8.289-4.693 10.804-2.543 2.516-5.357 4.063-8.274 5.467-2.293 1.104-4.71 2.104-7.16 3.098 6.558 4.82 12.595 10.053 17.467 15.232 2.72-1.247 5.468-2.497 8.181-3.807 6.982-3.37 13.564-7.126 17.93-11.242 4.367-4.115 6.549-7.97 6.549-13.552 0-9.945-3.598-17.446-9.586-24.297-5.988-6.852-14.492-12.712-23.363-17.746-8.87-5.035-17.995-9.213-25.438-13.438-3.721-2.112-7.045-4.194-9.908-6.88-.146-.138-.29-.291-.435-.434-10.483-7.04-23.998-15.262-34.807-20.682zm2.406 42.647c-8.107 4.759-15.766 10.22-21.283 16.533-5.988 6.85-9.586 14.352-9.586 24.297 0 5.583 2.182 9.437 6.549 13.552 4.366 4.116 10.948 7.872 17.93 11.243 2.64 1.274 5.3 2.493 7.94 3.708 19.051 9.787 36.7 19.107 53.985 23.813 4.034-1.373 4.848-5.133 3.936-9.729-14.856-14.943-29.808-23.803-47.373-32.316-2.917-1.404-5.731-2.951-8.274-5.467-2.542-2.515-4.693-6.554-4.693-10.804 0-5.167 2.72-8.885 5.525-11.776 2.806-2.89 6.174-5.33 9.995-7.81a158.19 158.19 0 0 1 4.373-2.721c-6.53-3.83-13.092-7.935-19.024-12.524zM256 299.998c-2.85 1.615-5.56 3.17-8 4.64v13.602c.75.346 1.504.714 2.258 1.082 1.845.76 3.75 1.558 5.74 2.461 2.81-1.274 5.521-2.389 8.002-3.388v-13.756a336.594 336.594 0 0 0-8-4.641zm-17.795 73.816c.588 4.245 2.564 8.12 5.824 12.147 3.933 4.857 9.67 9.59 15.723 14.059 6.053 4.469 12.365 8.641 17.643 13.166 5.277 4.524 10.605 9.79 10.605 17.957 0 9.9-5.82 17.934-12.969 27-7.148 9.065-16.35 18.536-25.51 27.273-2.047 1.953-3.986 3.667-6.005 5.53 8.23-4.31 16.77-9.533 24.816-15.385C290.729 459.27 308 437.905 308 423.143c0-4.467-1.67-8.043-4.982-11.957-3.312-3.915-8.27-7.772-13.592-11.48-5.322-3.71-10.947-7.234-15.762-11.368-.558-.48-1.115-.98-1.666-1.494-12.987-3.453-23.893-8.06-33.793-13.03zm-7.873 20.582c-2.574 1.786-5.2 3.527-7.758 5.31-5.321 3.708-10.28 7.565-13.592 11.48-3.311 3.914-4.982 7.49-4.982 11.957 0 7.314 3.964 16.342 11.316 25.61 6.386 8.05 15.135 16.148 24.827 23.481a384.732 384.732 0 0 0 5.076-4.976c-2.796-3.028-5.456-6.053-7.871-9.033C230.003 449.162 224 441.16 224 431.143c0-8.167 5.328-13.433 10.605-17.957 2.485-2.13 5.21-4.181 8.018-6.223-3.918-3.258-7.718-6.846-11.027-10.934-.431-.532-.85-1.079-1.264-1.633zm25.662 22.666c-2.896 2.081-5.66 4.071-7.994 5.872v22.921c.565.76 1.152 1.525 1.777 2.297 1.95 2.407 4.133 4.909 6.467 7.457 2.24-2.519 4.349-4.995 6.225-7.375.536-.68 1.04-1.353 1.531-2.023v-23.277c-2.346-1.81-5.09-3.778-8.006-5.872z"/></svg>

<?xml version="1.0" encoding="UTF-8" standalone="no"?>
<!DOCTYPE svg PUBLIC "-//W3C//DTD SVG 1.1//EN" "http://www.w3.org/Graphics/SVG/1.1/DTD/svg11.dtd">
<svg width="100%" height="100%" viewBox="0 0 512 512" version="1.1" xmlns="http://www.w3.org/2000/svg" xmlns:xlink="http://www.w3.org/1999/xlink" xml:space="preserve" xmlns:serif="http://www.serif.com/" style="fill-rule:evenodd;clip-rule:evenodd;stroke-linejoin:round;stroke-miterlimit:2;">
    <rect x="0" y="0" width="512" height="512" style="fill-rule:nonzero;"/>
    <path d="M202.412,21.06C200.223,21.125 197.697,21.637 194.617,22.703C149.244,38.411 80.172,79.747 18.965,98.262C29.823,104.989 41.654,110.925 53.906,115.632C67.602,109.346 80.979,103.095 92.32,96.824C106.207,89.146 116.932,81.152 121.398,74.625L134.602,83.66C127.272,94.372 114.817,102.669 100.062,110.826C92.725,114.883 84.786,118.836 76.594,122.73C84.109,124.539 91.658,125.82 99.127,126.437C102.505,126.717 105.859,126.867 109.184,126.893C125.029,117.067 140.022,104.383 144.854,95.262L158.992,102.75C155.528,109.29 150.313,115.576 144.059,121.445C159.689,115.947 173.849,106.009 185.599,90.342L192.834,80.695L198.91,91.111C203.614,99.175 209.953,105.922 217.145,111.729C222.477,110.913 227.179,110.355 232,110.08L232,79.084C222.3,71.767 216,60.154 216,47.143C215.997,41.888 217.04,36.686 219.068,31.838C216.529,28.285 213.908,25.49 211.275,23.766C209.103,22.343 206.95,21.381 204.334,21.123C203.695,21.063 203.053,21.042 202.412,21.06ZM308.67,21.06C308.328,21.07 307.993,21.09 307.666,21.123C305.05,21.381 302.897,22.343 300.725,23.766C298.091,25.49 295.471,28.286 292.932,31.838C294.96,36.686 296.003,41.888 296,47.143C296,60.154 289.7,71.767 280,79.084L280,110.08C285.003,110.369 290.454,111.012 294.855,111.729C302.047,105.922 308.386,99.175 313.09,91.111L319.166,80.695L326.4,90.342C338.15,106.009 352.311,115.947 367.941,121.445C361.687,115.576 356.471,109.29 353.008,102.75L367.146,95.262C371.978,104.384 386.971,117.067 402.816,126.892C406.173,126.867 409.528,126.715 412.873,126.438C420.343,125.819 427.891,124.538 435.406,122.73C427.214,118.836 419.275,114.883 411.937,110.826C397.183,102.669 384.729,94.372 377.398,83.66L390.602,74.625C395.068,81.152 405.792,89.146 419.68,96.825C431.02,103.095 444.398,109.345 458.094,115.633C470.346,110.925 482.177,104.989 493.035,98.262C431.828,79.747 362.756,38.412 317.383,22.703C313.863,21.484 311.066,20.992 308.67,21.061L308.67,21.06ZM235.453,125.986C233.893,126.005 232.335,126.071 230.779,126.186C217.917,127.128 201.977,131.266 195.426,134.371C180.519,141.437 174.278,148.162 171.211,154.359C168.144,160.557 168,167.161 168,175.143C168,184.476 172.299,191.361 180.146,197.955C187.994,204.549 199.303,210.096 210.946,214.705C232.439,225.988 255.108,237.647 272.994,250.689C277.909,254.164 284.177,256.347 288.992,258.867C293.709,253.908 296,249.337 296,245.143C296,242.643 295.333,239.881 294.107,236.961C281.893,213.879 258.931,202.746 234.795,189.441L234.738,189.504C224.367,185.481 214.724,183.143 208,183.143L204.422,167.986C220.255,160.07 231.857,153.433 238.76,147.109C245.516,140.921 248.026,135.856 247.969,127.797C243.962,126.041 239.412,125.946 235.453,125.987L235.453,125.986ZM276.547,125.986C272.373,126.127 267.248,126.05 264.031,127.796C263.974,135.856 266.484,140.921 273.241,147.109C280.143,153.433 291.745,160.07 307.578,167.986L304,183.143C296.037,183.143 283.988,186.412 271.475,191.887C281.525,198.319 291.074,205.813 298.973,215.498C299.668,215.23 300.36,214.98 301.055,214.705C312.697,210.096 324.005,204.549 331.854,197.955C339.7,191.361 344,184.475 344,175.143C344,167.161 343.856,160.557 340.79,154.359C337.722,148.162 331.481,141.437 316.574,134.371C310.024,131.266 294.083,127.128 281.221,126.186C279.665,126.071 278.107,126.005 276.547,125.986ZM218.463,235.666C216.869,239.066 216,242.276 216,245.143C216,249.976 219.03,255.308 225.322,261.158C231.614,267.008 240.69,272.824 250.008,278.218C259.326,283.613 268.84,288.598 276.48,293.557C280.3,296.037 283.669,298.477 286.475,301.367C289.281,304.257 292,307.976 292,313.143C292,317.393 289.849,321.432 287.307,323.947C284.764,326.463 281.95,328.01 279.033,329.414C276.74,330.518 274.323,331.518 271.873,332.512C278.431,337.332 284.468,342.565 289.34,347.744C292.06,346.497 294.808,345.247 297.521,343.937C304.503,340.567 311.085,336.811 315.451,332.695C319.818,328.58 322,324.725 322,319.143C322,309.198 318.402,301.697 312.414,294.846C306.426,287.994 297.922,282.134 289.051,277.1C280.181,272.065 271.056,267.887 263.613,263.662C259.892,261.55 256.568,259.468 253.705,256.782C253.559,256.644 253.415,256.491 253.27,256.348C242.787,249.308 229.272,241.086 218.463,235.666ZM220.869,278.313C212.762,283.072 205.103,288.533 199.586,294.846C193.598,301.696 190,309.198 190,319.143C190,324.726 192.182,328.58 196.549,332.695C200.915,336.811 207.497,340.567 214.479,343.938C217.119,345.212 219.779,346.431 222.419,347.646C241.47,357.433 259.119,366.753 276.404,371.459C280.438,370.086 281.252,366.326 280.34,361.73C265.484,346.787 250.532,337.927 232.967,329.414C230.05,328.01 227.236,326.463 224.693,323.947C222.151,321.432 220,317.393 220,313.143C220,307.976 222.72,304.258 225.525,301.367C228.331,298.477 231.699,296.037 235.52,293.557C236.963,292.626 238.421,291.719 239.893,290.836C233.363,287.006 226.801,282.901 220.869,278.312L220.869,278.313ZM238.205,373.814C238.793,378.059 240.769,381.934 244.029,385.961C247.962,390.818 253.699,395.551 259.752,400.02C265.805,404.489 272.117,408.661 277.395,413.186C282.672,417.71 288,422.976 288,431.143C288,441.043 282.18,449.077 275.031,458.143C267.883,467.208 258.681,476.679 249.521,485.416C247.474,487.369 245.535,489.083 243.516,490.946C251.746,486.636 260.286,481.413 268.332,475.561C290.729,459.27 308,437.905 308,423.143C308,418.676 306.33,415.1 303.018,411.186C299.706,407.271 294.748,403.414 289.426,399.706C284.104,395.996 278.479,392.472 273.664,388.338C273.106,387.858 272.549,387.358 271.998,386.844C259.011,383.391 248.105,378.784 238.205,373.814ZM230.332,394.396C227.758,396.182 225.132,397.923 222.574,399.706C217.253,403.414 212.294,407.271 208.982,411.186C205.671,415.1 204,418.676 204,423.143C204,430.457 207.964,439.485 215.316,448.753C221.702,456.803 230.451,464.901 240.143,472.234C241.85,470.591 243.542,468.932 245.219,467.258C242.423,464.23 239.763,461.205 237.348,458.225C230.003,449.162 224,441.16 224,431.143C224,422.976 229.328,417.71 234.605,413.186C237.09,411.056 239.815,409.005 242.623,406.963C238.705,403.705 234.905,400.117 231.596,396.029C231.165,395.497 230.746,394.95 230.332,394.396Z" style="fill:rgb(132,222,197);fill-rule:nonzero;"/>
    <path d="M256,24C269.35,24 280,34.65 280,48C280,61.35 269.35,72 256,72C242.65,72 232,61.35 232,48C232,34.65 242.65,24 256,24ZM248,86.332C250.587,86.862 253.263,87.142 256,87.142C258.737,87.142 261.413,86.862 264,86.332L264,110.972C261.28,111.596 258.681,112.379 256,113.862C253.759,112.582 250.793,111.578 248,110.972L248,86.332ZM256,151.77C257.907,154.353 260.062,156.744 262.434,158.908C262.949,159.377 263.471,159.838 264,160.291L264,177.441C261.301,178.675 258.636,179.982 256.008,181.361C253.376,179.98 250.705,178.673 248,177.441L248,160.291C248.531,159.834 249.058,159.374 249.566,158.908C251.938,156.744 254.093,154.353 256,151.77ZM256,299.998C258.688,301.508 261.355,303.055 264,304.639L264,318.395C261.519,319.394 258.808,320.509 255.998,321.783C254.008,320.88 252.103,320.082 250.258,319.322C249.504,318.954 248.75,318.586 248,318.24L248,304.638C250.44,303.168 253.15,301.613 256,299.998ZM255.994,417.062C258.91,419.156 261.654,421.124 264,422.934L264,446.211C263.509,446.881 263.005,447.554 262.469,448.234C260.593,450.614 258.484,453.09 256.244,455.609C253.91,453.061 251.727,450.559 249.777,448.152C249.152,447.38 248.565,446.615 248,445.855L248,422.934C250.334,421.133 253.098,419.143 255.994,417.062Z" style="fill:rgb(201,165,106);"/>
</svg>
